images/logo.svg

<?xml version="1.0" encoding="UTF-8" standalone="no"?>
<svg width="449px" height="117px" viewBox="0 0 449 117" version="1.1" xmlns="http://www.w3.org/2000/svg" xmlns:xlink="http://www.w3.org/1999/xlink">
    <!-- Generator: Sketch 3.8.1 (29687) - http://www.bohemiancoding.com/sketch -->
    <title>Logo</title>
    <desc>Created with Sketch.</desc>
    <defs>
        <linearGradient x1="50%" y1="0%" x2="50%" y2="100%" id="linearGradient-1">
            <stop stop-color="#F48125" offset="0%"></stop>
            <stop stop-color="#CC3333" offset="100%"></stop>
        </linearGradient>
    </defs>
    <g id="Page-1" stroke="none" stroke-width="1" fill="none" fill-rule="evenodd">
        <g id="Logo" transform="translate(-25.000000, -191.000000)">
            <g transform="translate(25.000000, 191.000000)">
                <path d="M178.950229,96.1132889 C194.657459,96.1132889 203.857408,88.2596739 209.579327,79.2841138 L198.359877,73.5621943 C194.769653,79.8450863 187.589205,84.4450608 178.950229,84.4450608 C164.701527,84.4450608 153.706466,73.1134163 153.706466,57.4061862 C153.706466,41.6989561 164.701527,30.3673115 178.950229,30.3673115 C187.589205,30.3673115 194.769653,35.0794805 198.359877,41.2501781 L209.579327,35.5282585 C203.969602,26.5526985 194.657459,18.6990834 178.950229,18.6990834 C157.408884,18.6990834 140.243126,34.4063135 140.243126,57.4061862 C140.243126,80.4060588 157.408884,96.1132889 178.950229,96.1132889 L178.950229,96.1132889 Z M213.945563,94.7669549 L225.725986,94.7669549 L225.725986,19.933223 L213.945563,19.933223 L213.945563,94.7669549 Z M259.599375,96.1132889 C276.989523,96.1132889 287.535806,83.2109213 287.535806,67.6158857 C287.535806,52.1330446 276.989523,39.2306771 259.599375,39.2306771 C242.433617,39.2306771 231.775139,52.1330446 231.775139,67.6158857 C231.775139,83.2109213 242.433617,96.1132889 259.599375,96.1132889 L259.599375,96.1132889 Z M259.599375,85.6792003 C249.614065,85.6792003 244.00434,77.2646128 244.00434,67.6158857 C244.00434,58.0793532 249.614065,49.6647656 259.599375,49.6647656 C269.696881,49.6647656 275.306606,58.0793532 275.306606,67.6158857 C275.306606,77.2646128 269.696881,85.6792003 259.599375,85.6792003 L259.599375,85.6792003 Z M329.4872,94.7669549 L344.296874,94.7669549 L321.297001,65.1476067 L343.848096,40.5770111 L329.262811,40.5770111 L305.365382,66.7183297 L305.365382,19.933223 L293.58496,19.933223 L293.58496,94.7669549 L305.365382,94.7669549 L305.365382,80.1816698 L312.882414,72.4402493 L329.4872,94.7669549 Z M340.585106,67.6158857 C340.585106,84.7816443 352.702112,96.1132889 368.970315,96.1132889 C377.609291,96.1132889 385.575101,93.4206209 390.960437,88.2596739 L385.575101,80.5182533 C381.760488,84.3328663 375.477596,86.4645619 370.204454,86.4645619 C359.994755,86.4645619 353.824057,79.7328918 352.926501,71.5426933 L394.77505,71.5426933 L394.77505,68.7378307 C394.77505,51.6842666 384.340961,39.2306771 368.072759,39.2306771 C352.028945,39.2306771 340.585106,51.9086556 340.585106,67.6158857 L340.585106,67.6158857 Z M368.072759,48.8794041 C378.731236,48.8794041 383.106822,56.8452137 383.331211,63.2403002 L352.814306,63.2403002 C353.375279,56.6208247 357.975253,48.8794041 368.072759,48.8794041 L368.072759,48.8794041 Z M437.175221,94.7669549 L448.955644,94.7669549 L448.955644,56.6208247 C448.955644,45.5135691 443.12153,39.2306771 431.453302,39.2306771 C422.92652,39.2306771 415.970461,43.7184571 412.380237,47.9818481 L412.380237,40.5770111 L400.599814,40.5770111 L400.599814,94.7669549 L412.380237,94.7669549 L412.380237,56.9574082 C415.072905,53.2549897 420.233852,49.6647656 426.292355,49.6647656 C432.91183,49.6647656 437.175221,52.4696281 437.175221,60.8842157 L437.175221,94.7669549 Z" id="Cloken" fill="#492E23"></path>
                <g id="Icon">
                    <path d="M101.22646,80.8446198 L109.869164,85.8326485 C113.933483,78.2301217 116.307014,69.6235633 116.620272,60.4949085 L106.680359,60.4949085 C105.567892,60.4949085 104.66828,59.5952962 104.66828,58.4868454 C104.66828,57.3783946 105.567892,56.4787823 106.676343,56.4787823 L116.616256,56.4787823 C116.302998,47.3501275 113.929467,38.739553 109.865147,31.1410423 L101.222444,36.129071 C100.90517,36.3097967 100.559783,36.3981515 100.222429,36.3981515 C99.5276387,36.3981515 98.8529295,36.0407162 98.4794298,35.3941199 C97.9252044,34.4342658 98.2545267,33.2053312 99.2143809,32.6511058 L107.812907,27.6871738 C103.114039,20.1930824 96.7765923,13.8556353 89.2825009,9.15676767 L84.3185689,17.7512777 C83.9450692,18.3938579 83.27036,18.7553092 82.5755702,18.7553092 C82.2341995,18.7553092 81.8888126,18.6709706 81.5755548,18.4862288 C80.6157006,17.9320033 80.2863783,16.7030687 80.8406037,15.7432146 L85.8286324,7.10051107 C77.667864,2.73899805 68.3624997,0.248999823 58.4828293,0.248999823 C57.3743785,0.248999823 56.4747662,1.14861208 56.4747662,2.25706291 L56.4747662,56.4747662 L2.25706291,56.4747662 C1.14861208,56.4747662 0.248999823,57.3743785 0.248999823,58.4828293 C0.248999823,68.3624997 2.73899805,77.667864 7.10051107,85.8286324 L15.7432146,80.8406037 C16.6950365,80.2863783 17.9279872,80.6116845 18.4862288,81.5755548 C19.0404542,82.5354089 18.7111318,83.7643435 17.7512777,84.3185689 L9.15676767,89.286517 C13.8556353,96.7806084 20.1930824,103.118056 27.6871738,107.816923 L32.6511058,99.218397 C33.2053312,98.2585429 34.4302497,97.9252044 35.3941199,98.4834459 C36.3539741,99.0376713 36.6832964,100.266606 36.129071,101.22646 L31.1410423,109.869164 C38.7435692,113.929467 47.3501275,116.307014 56.4787823,116.620272 L56.4787823,106.680359 C56.4787823,105.571909 57.3783946,104.672296 58.4868454,104.672296 C59.5952962,104.672296 60.4949085,105.571909 60.4949085,106.680359 L60.4949085,116.620272 C69.6235633,116.307014 78.2341378,113.933483 85.8326485,109.869164 L80.8446198,101.22646 C80.2903944,100.266606 80.6197167,99.0376713 81.5795709,98.4834459 C82.5354089,97.9252044 83.7643435,98.2545267 84.3225851,99.218397 L89.286517,107.816923 C96.7806084,103.118056 103.118056,96.7806084 107.816923,89.286517 L99.218397,84.3225851 C98.2585429,83.7683596 97.9292205,82.539425 98.4834459,81.5795709 C99.0376713,80.6197167 100.26259,80.2903944 101.22646,80.8446198 L101.22646,80.8446198 Z" id="Cloken" fill="url(#linearGradient-1)"></path>
                    <path d="M8.79130019,32.1089287 L15.7472307,36.1250549 C16.0604886,36.3097967 16.4058754,36.3941353 16.7472461,36.3941353 C17.442036,36.3941353 18.1167452,36.032684 18.4902449,35.3901038 C19.0404542,34.4302497 18.7111318,33.2053312 17.7552938,32.6511058 L10.7993633,28.6349796 C9.83950912,28.0727219 8.60655838,28.4060604 8.05233297,29.3699307 C7.49810756,30.333801 7.83144603,31.5547033 8.79130019,32.1089287 Z M32.6470896,17.7512777 C33.0205894,18.3938579 33.6952986,18.7553092 34.3900884,18.7553092 C34.7314591,18.7553092 35.076846,18.6669544 35.3901038,18.4862288 C36.349958,17.9360195 36.6752642,16.7030687 36.1210388,15.7432146 L32.1049126,8.78728406 C31.5466711,7.82341378 30.3177365,7.49409143 29.3618984,8.05233297 C28.4020443,8.61057451 28.0767381,9.83549299 28.6309635,10.7953471 L32.6470896,17.7512777 Z" id="Time" fill="#FF9000"></path>
                </g>
            </g>
        </g>
    </g>
</svg>

<svg viewBox="0 0 449 117" xmlns="http://www.w3.org/2000/svg"><g fill="none" fill-rule="evenodd"><path d="m178.95 96.11c15.707 0 24.907-7.854 30.629-16.829l-11.219-5.722c-3.59 6.283-10.771 10.883-19.41 10.883-14.249 0-25.24-11.332-25.24-27.04 0-15.707 10.995-27.04 25.24-27.04 8.639 0 15.819 4.712 19.41 10.883l11.219-5.722c-5.61-8.976-14.922-16.829-30.629-16.829-21.541 0-38.707 15.707-38.707 38.707 0 23 17.17 38.707 38.707 38.707m34.995-1.346h11.78v-74.834h-11.78v74.834m45.654 1.346c17.39 0 27.936-12.902 27.936-28.497 0-15.483-10.546-28.385-27.936-28.385-17.17 0-27.824 12.902-27.824 28.385 0 15.595 10.658 28.497 27.824 28.497m0-10.434c-9.985 0-15.595-8.415-15.595-18.06 0-9.537 5.61-17.951 15.595-17.951 10.1 0 15.707 8.415 15.707 17.951 0 9.649-5.61 18.06-15.707 18.06m69.888 9.09h14.81l-23-29.619 22.551-24.571h-14.585l-23.897 26.14v-46.785h-11.78v74.834h11.78v-14.585l7.517-7.741 16.605 22.327m11.1-27.15c0 17.17 12.12 28.497 28.385 28.497 8.639 0 16.605-2.693 21.99-7.854l-5.385-7.741c-3.815 3.815-10.1 5.946-15.371 5.946-10.21 0-16.38-6.732-17.278-14.922h41.849v-2.805c0-17.05-10.434-29.507-26.702-29.507-16.04 0-27.488 12.678-27.488 28.385m27.488-18.736c10.658 0 15.03 7.966 15.258 14.361h-30.517c.561-6.619 5.161-14.361 15.258-14.361m69.1 45.888h11.78v-38.15c0-11.11-5.834-17.39-17.502-17.39-8.527 0-15.483 4.488-19.07 8.751v-7.405h-11.78v54.19h11.78v-37.81c2.693-3.702 7.854-7.293 13.912-7.293 6.619 0 10.883 2.805 10.883 11.219v33.883" fill="#38322d"/><g><path d="m101.23 80.84l8.643 4.988c4.064-7.603 6.438-16.209 6.751-25.338h-9.94c-1.112 0-2.01-.9-2.01-2.01 0-1.108.9-2.01 2.01-2.01h9.94c-.313-9.129-2.687-17.739-6.751-25.338l-8.643 4.988c-.317.181-.663.269-1 .269-.695 0-1.369-.357-1.743-1-.554-.96-.225-2.189.735-2.743l8.599-4.964c-4.699-7.494-11.04-13.832-18.53-18.53l-4.964 8.595c-.373.643-1.048 1-1.743 1-.341 0-.687-.084-1-.269-.96-.554-1.289-1.783-.735-2.743l4.988-8.643c-8.161-4.362-17.466-6.852-27.346-6.852-1.108 0-2.01.9-2.01 2.01v54.22h-54.22c-1.108 0-2.01.9-2.01 2.01 0 9.88 2.49 19.19 6.852 27.346l8.643-4.988c.952-.554 2.185-.229 2.743.735.554.96.225 2.189-.735 2.743l-8.595 4.968c4.699 7.494 11.04 13.832 18.53 18.53l4.964-8.599c.554-.96 1.779-1.293 2.743-.735.96.554 1.289 1.783.735 2.743l-4.988 8.643c7.603 4.06 16.209 6.438 25.338 6.751v-9.94c0-1.108.9-2.01 2.01-2.01 1.108 0 2.01.9 2.01 2.01v9.94c9.129-.313 17.739-2.687 25.338-6.751l-4.988-8.643c-.554-.96-.225-2.189.735-2.743.956-.558 2.185-.229 2.743.735l4.964 8.599c7.494-4.699 13.832-11.04 18.53-18.53l-8.599-4.964c-.96-.554-1.289-1.783-.735-2.743.554-.96 1.779-1.289 2.743-.735" fill="#c33"/><path d="m8.791 32.11l6.956 4.02c.313.185.659.269 1 .269.695 0 1.369-.361 1.743-1 .55-.96.221-2.185-.735-2.739l-6.956-4.02c-.96-.562-2.193-.229-2.747.735-.554.964-.221 2.185.739 2.739m23.856-14.358c.373.643 1.048 1 1.743 1 .341 0 .687-.088 1-.269.96-.55 1.285-1.783.731-2.743l-4.02-6.956c-.558-.964-1.787-1.293-2.743-.735-.96.558-1.285 1.783-.731 2.743l4.02 6.956" fill="#ff9000"/></g></g></svg>
